app/client/src/assets/icons/blueprintjs/16px/pivot-table.svg

<svg xmlns="http://www.w3.org/2000/svg" xml:space="preserve" viewBox="0 0 16 16"><path d="M2 4H1c-.55 0-1 .45-1 1v10c0 .55.45 1 1 1h1c.55 0 1-.45 1-1V5c0-.55-.45-1-1-1zm0-4H1C.45 0 0 .45 0 1v1c0 .55.45 1 1 1h1c.55 0 1-.45 1-1V1c0-.55-.45-1-1-1zm11.71 4.29C13.53 4.11 13.28 4 13 4s-.53.11-.71.29l-2 2a1.003 1.003 0 0 0 1.42 1.42l.29-.3V9c0 1.66-1.34 3-3 3H7.41l.29-.29c.19-.18.3-.43.3-.71a1.003 1.003 0 0 0-1.71-.71l-2 2c-.18.18-.29.43-.29.71 0 .28.11.53.29.71l2 2a1.003 1.003 0 0 0 1.42-1.42l-.3-.29H9c2.76 0 5-2.24 5-5V7.41l.29.29c.18.19.43.3.71.3a1.003 1.003 0 0 0 .71-1.71l-2-2zM15 0H5c-.55 0-1 .45-1 1v1c0 .55.45 1 1 1h10c.55 0 1-.45 1-1V1c0-.55-.45-1-1-1z"/></svg>

<?xml version="1.0" encoding="utf-8"?>
<!-- Generator: Adobe Illustrator 18.1.0, SVG Export Plug-In . SVG Version: 6.00 Build 0)  -->
<svg version="1.1" id="Layer_1" xmlns="http://www.w3.org/2000/svg" xmlns:xlink="http://www.w3.org/1999/xlink" x="0px" y="0px"
	 viewBox="0 0 16 16" enable-background="new 0 0 16 16" xml:space="preserve">
<g id="pivot_table_1_">
	<g>
		<path d="M2,4H1C0.45,4,0,4.45,0,5v10c0,0.55,0.45,1,1,1h1c0.55,0,1-0.45,1-1V5C3,4.45,2.55,4,2,4z M2,0H1C0.45,0,0,0.45,0,1v1
			c0,0.55,0.45,1,1,1h1c0.55,0,1-0.45,1-1V1C3,0.45,2.55,0,2,0z M13.71,4.29C13.53,4.11,13.28,4,13,4s-0.53,0.11-0.71,0.29l-2,2
			C10.11,6.47,10,6.72,10,7c0,0.55,0.45,1,1,1c0.28,0,0.53-0.11,0.71-0.29L12,7.41V9c0,1.66-1.34,3-3,3H7.41l0.29-0.29
			C7.89,11.53,8,11.28,8,11c0-0.55-0.45-1-1-1c-0.28,0-0.53,0.11-0.71,0.29l-2,2C4.11,12.47,4,12.72,4,13
			c0,0.28,0.11,0.53,0.29,0.71l2,2C6.47,15.89,6.72,16,7,16c0.55,0,1-0.45,1-1c0-0.28-0.11-0.53-0.29-0.71L7.41,14H9
			c2.76,0,5-2.24,5-5V7.41l0.29,0.29C14.47,7.89,14.72,8,15,8c0.55,0,1-0.45,1-1c0-0.28-0.11-0.53-0.29-0.71L13.71,4.29z M15,0H5
			C4.45,0,4,0.45,4,1v1c0,0.55,0.45,1,1,1h10c0.55,0,1-0.45,1-1V1C16,0.45,15.55,0,15,0z"/>
	</g>
</g>
</svg>
